X:170
T: Wee Johnny
R: slip jig/double jig
M: 9/8
L: 1/8
S: "Raise the Rafters" (PJ King, K.Crawford, M.O Malley)
Z: B.Black
K: D
AFd AFd AFD|E2F GFG Eed|\
M: 6/8
cBc dcB|
M: 9/8
AFd AFd AFD|E2F GFG Eed|\
M: 6/8
cBc d3 :|
Adf agf|efg B2A|cBc ABc|dAG FED|
Adf agf|efg B2A|cBc ABc|dfe dcB :|
